lib/logo_tmp/nrk-logo-nrk-trafikk-with-bg.svg

<svg width="100" height="24" viewBox="0 0 100 24" fill="none" xmlns="http://www.w3.org/2000/svg">
<rect width="100" height="24" fill="#1767CE"/>
<path d="M6.00427 18V6.00109H9.94146V18H6.00427ZM15.2981 7.91078L17.5623 18H13.2534L10.5498 6.00109H12.9664C13.5206 5.9939 14.0583 6.18925 14.4788 6.55039C14.8999 6.89638 15.1892 7.3767 15.2981 7.91078ZM18.1538 18V6.00109H22.091V18H18.1538ZM25.0647 10.5641C24.6405 10.5682 24.223 10.4572 23.8568 10.243C23.4955 10.0341 23.1954 9.73396 22.9865 9.3726C22.7721 9.00633 22.661 8.58876 22.6652 8.16432C22.6604 7.74246 22.7715 7.32738 22.9865 6.96443C23.1976 6.60699 23.4974 6.31009 23.8568 6.10252C24.2231 5.8885 24.6405 5.77751 25.0647 5.78138C25.4865 5.77684 25.9014 5.88793 26.2645 6.10252C26.6203 6.31191 26.9169 6.60856 27.1263 6.96443C27.3411 7.32748 27.4522 7.74249 27.4476 8.16432C27.4515 8.58873 27.3405 9.00623 27.1263 9.3726C26.9191 9.73238 26.6222 10.0323 26.2645 10.243C25.9014 10.458 25.4862 10.5691 25.0642 10.5641H25.0647ZM28.0559 18V6.00109H31.9934V18H28.0559ZM36.978 12.5582C36.9891 12.5699 37.0735 12.7079 37.2314 12.9723C37.3893 13.2367 37.5949 13.5747 37.8482 13.9863C38.1017 14.3977 38.3692 14.8343 38.6506 15.296C38.932 15.7577 39.1969 16.1944 39.4451 16.6058C39.6924 17.0172 39.974 17.4819 40.29 18H35.9641C35.6936 17.5606 35.4484 17.1635 35.2287 16.8086C35.0091 16.4537 34.7756 16.0706 34.5281 15.6594C34.2801 15.2485 34.0349 14.8485 33.7925 14.4595C33.5501 14.0704 33.3418 13.7296 33.1675 13.4371C32.9925 13.1443 32.8713 12.9471 32.8039 12.8455C32.6368 12.5934 32.5379 12.3023 32.517 12.0005C32.5337 11.7109 32.6269 11.431 32.787 11.1891C32.8546 11.0764 32.9786 10.8764 33.1588 10.5891C33.339 10.3018 33.5503 9.96105 33.7925 9.56672C34.0347 9.17239 34.2799 8.7696 34.5281 8.35837C34.7763 7.94715 35.0098 7.56124 35.2287 7.20071C35.4488 6.84055 35.6939 6.44059 35.9641 6.00081H40.29L36.9439 11.4595C36.8404 11.6216 36.782 11.8083 36.7749 12.0005C36.786 12.2023 36.8565 12.3963 36.9774 12.5582H36.978Z" fill="white"/>
<path d="M52.6673 6.00446H43.1139V7.49129H47.0064V18.0004H48.7912V7.49129H52.667L52.6673 6.00446Z" fill="#D9E9FF"/>
<path d="M56.1521 9.3246C55.8343 9.40955 55.5307 9.54049 55.2511 9.7132C54.9612 9.8932 54.6932 10.1058 54.4522 10.3468C54.412 10.3868 54.3728 10.4313 54.3332 10.4733V9.21481L52.5993 9.46822V18.0006H54.3332V11.6174C54.462 11.5279 54.5954 11.4451 54.7327 11.3693C54.9026 11.276 55.0785 11.1941 55.2594 11.124C55.4353 11.0564 55.6135 10.9973 55.7951 10.9469C55.9817 10.8951 56.1721 10.8583 56.3646 10.8368C56.5706 10.8142 56.7781 10.8085 56.985 10.8199L57.189 9.23169C56.8406 9.20694 56.4905 9.23831 56.1521 9.3246Z" fill="#D9E9FF"/>
<path d="M65.9096 16.9359C65.7853 16.9473 65.6601 16.9286 65.5447 16.8816C65.4293 16.8345 65.327 16.7604 65.2466 16.6656C65.0889 16.3948 65.0234 16.0808 65.0596 15.7701L65.0936 12.2896C65.0973 11.9247 65.0516 11.561 64.9576 11.2082C64.8751 10.8989 64.7369 10.6069 64.5496 10.3465C64.3605 10.0919 64.1203 9.87907 63.8442 9.72141C63.5234 9.54026 63.1766 9.40919 62.8158 9.3328C62.3746 9.23833 61.9241 9.19309 61.4728 9.19792C61.1148 9.19768 60.7573 9.22016 60.4022 9.26522C60.0665 9.30716 59.7342 9.3721 59.4075 9.45954C59.1047 9.54116 58.8068 9.63986 58.5153 9.7552L58.311 11.1913C58.5943 11.09 58.8635 11.0055 59.1185 10.9379C59.3735 10.8703 59.6199 10.814 59.8579 10.7689C60.0911 10.7245 60.3266 10.6936 60.5634 10.6763C60.7955 10.6592 61.0251 10.6507 61.2521 10.6507C61.5988 10.6433 61.9448 10.6831 62.2805 10.7689C62.5254 10.83 62.7506 10.9521 62.9347 11.1237C63.0987 11.2908 63.2159 11.4976 63.2747 11.7235C63.3475 12.0021 63.3819 12.2893 63.377 12.5771L63.375 12.9995L61.3879 13.1332C60.7083 13.1522 60.0387 13.3014 59.416 13.5725C58.95 13.7752 58.5477 14.0992 58.2515 14.5102C58.0003 14.876 57.8669 15.3091 57.869 15.7521C57.8659 16.1676 57.9682 16.5773 58.1665 16.9432C58.3745 17.319 58.6874 17.6271 59.0674 17.8302C59.5312 18.07 60.0495 18.1864 60.5719 18.1681C61.0614 18.1793 61.5488 18.0991 62.0086 17.9316C62.406 17.777 62.7695 17.5476 63.0792 17.2558C63.1968 17.1437 63.3084 17.0255 63.4135 16.9018C63.4467 17.0767 63.5089 17.2448 63.5977 17.3994C63.7491 17.6581 63.9821 17.86 64.2606 17.9738C64.5685 18.0967 64.8979 18.157 65.2296 18.1512C65.3315 18.1512 65.4308 18.1484 65.5273 18.1428C65.6218 18.1374 65.7156 18.1232 65.8075 18.1005C65.8982 18.078 65.9801 18.0583 66.054 18.0414C66.1206 18.0267 66.186 18.0069 66.2495 17.9823L66.4368 16.8503C66.3428 16.8822 66.2459 16.9048 66.1475 16.9179C66.0686 16.9288 65.9892 16.9348 65.9096 16.9359ZM63.3617 15.9095C63.2751 16.0061 63.1804 16.0951 63.0784 16.1756C62.8941 16.3203 62.6946 16.4449 62.4834 16.5473C62.2731 16.649 62.0503 16.7228 61.8207 16.7669C61.5827 16.8126 61.3408 16.8353 61.0983 16.8345C60.8212 16.8424 60.5456 16.7905 60.2906 16.6824C60.0832 16.593 59.9083 16.4427 59.7894 16.2516C59.6715 16.0491 59.6126 15.8181 59.6193 15.5842C59.603 15.3026 59.6806 15.0234 59.8403 14.7901C60.0254 14.5754 60.2762 14.427 60.5543 14.3677C60.9886 14.2662 61.4343 14.2207 61.8803 14.2326H63.3688L63.3617 15.9095Z" fill="#D9E9FF"/>
<path d="M72.3093 5.37939C72.1337 5.3456 71.9552 5.32025 71.7739 5.30336C71.5926 5.28646 71.3999 5.27799 71.1959 5.27799C70.8266 5.27563 70.4593 5.33272 70.1083 5.44697C69.7746 5.55605 69.4697 5.73789 69.2158 5.97919C68.9531 6.23335 68.75 6.54198 68.6209 6.8831C68.4706 7.29432 68.3985 7.72974 68.4084 8.16716V9.38367H67.1335V10.7015H68.4084V18.0005H70.1423V10.7015H72.5221V9.38367H70.1423V7.98133C70.1386 7.78858 70.1703 7.59677 70.2358 7.41532C70.2913 7.262 70.3813 7.12329 70.499 7.0098C70.6222 6.89728 70.7711 6.81613 70.9327 6.77327C71.1236 6.72069 71.3209 6.69509 71.5189 6.69724C71.6552 6.69724 71.7849 6.70317 71.9102 6.71415C72.0354 6.72513 72.1564 6.74229 72.2757 6.76482C72.3949 6.78735 72.5077 6.80987 72.6156 6.8324C72.7117 6.8514 72.8056 6.87971 72.8961 6.91689L72.8281 5.51455C72.6584 5.45825 72.485 5.4131 72.3093 5.37939Z" fill="#D9E9FF"/>
<path d="M74.2046 18.0006H75.9384V9.21481L74.2046 9.46822V18.0006Z" fill="#D9E9FF"/>
<path d="M75.692 5.67491C75.5156 5.56776 75.3123 5.51215 75.1055 5.51442C74.8962 5.51275 74.6903 5.56825 74.5105 5.67491C74.3333 5.77812 74.1844 5.92321 74.0771 6.09731C73.9691 6.27263 73.9132 6.47469 73.9156 6.68023C73.9138 6.88834 73.9696 7.09293 74.0771 7.27157C74.181 7.4483 74.3307 7.59414 74.5105 7.69396C74.6921 7.79546 74.8973 7.84787 75.1055 7.846C75.3112 7.84843 75.5138 7.79594 75.692 7.69396C75.8669 7.59338 76.0108 7.44736 76.1085 7.27157C76.2106 7.09113 76.2634 6.88724 76.2615 6.68023C76.264 6.47581 76.2111 6.27447 76.1085 6.09731C76.0075 5.92403 75.8643 5.77878 75.692 5.67491Z" fill="#D9E9FF"/>
<path d="M85.9848 9.38361H83.8599L80.9512 12.56H80.3242V5.24414L78.5903 5.49758V18.0004H80.3242V13.861H80.3525L83.8257 18.0004H86.0695L81.9462 13.3822L85.9848 9.38361Z" fill="#D9E9FF"/>
<path d="M94.9084 9.38361H92.7836L89.8748 12.56H89.2478V5.24414L87.514 5.49758V18.0004H89.2478V13.861H89.2762L92.7493 18.0004H94.9932L90.8698 13.3822L94.9084 9.38361Z" fill="#D9E9FF"/>
</svg>

<svg xmlns="http://www.w3.org/2000/svg" viewBox="0 0 100 24"><path fill="#1767CE" d="M0 0h100v24H0z"/><path fill="#fff" d="M6.004 18V6.001h3.937V18H6.004Zm9.294-10.09L17.562 18h-4.309L10.55 6.001h2.416a2.276 2.276 0 0 1 1.513.55c.42.345.71.826.82 1.36ZM18.154 18V6.001h3.937V18h-3.937Zm6.91-7.436a2.383 2.383 0 0 1-2.4-2.4 2.303 2.303 0 0 1 .323-1.2 2.411 2.411 0 0 1 3.278-.861c.355.209.652.506.861.861.215.363.326.778.322 1.2a2.4 2.4 0 0 1-1.183 2.079 2.302 2.302 0 0 1-1.2.321ZM28.057 18V6.001h3.937V18h-3.937Zm8.922-5.442c.011.012.096.15.253.414.158.265.364.603.617 1.014a315.936 315.936 0 0 1 1.597 2.62c.247.411.529.876.845 1.394h-4.326c-.27-.44-.516-.837-.735-1.191-.22-.355-.453-.738-.7-1.15-.249-.41-.494-.81-.737-1.2-.242-.389-.45-.73-.625-1.022-.175-.293-.296-.49-.363-.591a1.748 1.748 0 0 1-.287-.845c.017-.29.11-.57.27-.812.068-.113.192-.313.372-.6s.391-.628.633-1.022c.243-.395.488-.797.736-1.209l.7-1.157.736-1.2h4.326l-3.346 5.458a1.08 1.08 0 0 0-.17.542c.012.201.082.395.203.557h.001Z"/><path fill="#D9E9FF" d="M52.667 6.004h-9.553v1.487h3.892v10.51h1.785V7.49h3.876V6.004ZM56.152 9.325a3.371 3.371 0 0 0-.9.388c-.29.18-.559.393-.8.634-.04.04-.08.084-.119.126V9.215l-1.734.253v8.533h1.734v-6.384a4.388 4.388 0 0 1 .926-.493 5.86 5.86 0 0 1 .536-.177 3.639 3.639 0 0 1 1.19-.127l.204-1.588a3.261 3.261 0 0 0-1.037.093ZM65.91 16.936a.779.779 0 0 1-.663-.27 1.446 1.446 0 0 1-.187-.896l.034-3.48a4.04 4.04 0 0 0-.136-1.082 2.642 2.642 0 0 0-.408-.861 2.298 2.298 0 0 0-.706-.626 3.614 3.614 0 0 0-1.028-.388 6.103 6.103 0 0 0-1.343-.135c-.358 0-.716.022-1.07.067a7.39 7.39 0 0 0-.995.195c-.303.081-.601.18-.893.295l-.204 1.436a10.076 10.076 0 0 1 1.547-.422c.233-.044.469-.075.705-.093.232-.017.462-.025.69-.025.346-.008.692.032 1.028.118.244.061.47.183.654.355.164.167.28.374.34.6.072.278.107.565.102.853l-.002.422-1.987.134c-.68.02-1.35.168-1.972.44a2.823 2.823 0 0 0-1.164.937 2.175 2.175 0 0 0-.383 1.242c-.003.416.1.825.297 1.191.209.376.521.684.901.887.464.24.983.356 1.505.338.49.011.977-.069 1.437-.236.397-.155.76-.384 1.07-.676.118-.112.23-.23.334-.354.034.175.096.343.185.497.151.26.384.461.663.575.308.123.637.183.969.177.102 0 .2-.003.297-.008.095-.006.189-.02.28-.043l.247-.059c.067-.014.132-.034.195-.059l.188-1.132c-.094.032-.191.055-.29.068-.078.01-.158.017-.237.018Zm-2.548-1.027a2.264 2.264 0 0 1-.284.267c-.184.144-.383.269-.595.371-.21.102-.433.176-.662.22-.238.046-.48.068-.723.067a1.929 1.929 0 0 1-.807-.152 1.105 1.105 0 0 1-.502-.43 1.255 1.255 0 0 1-.17-.668c-.016-.281.062-.56.221-.794a1.3 1.3 0 0 1 .714-.422c.435-.102.88-.147 1.326-.135h1.489l-.007 1.676ZM72.31 5.38a5.563 5.563 0 0 0-1.114-.102 3.443 3.443 0 0 0-1.088.169 2.36 2.36 0 0 0-1.487 1.436c-.15.411-.222.847-.213 1.284v1.217h-1.275V10.7h1.275v7.3h1.734v-7.3h2.38V9.384h-2.38V7.98a1.578 1.578 0 0 1 .094-.566c.055-.153.145-.292.263-.405.123-.113.272-.194.434-.237a2.12 2.12 0 0 1 .586-.076c.136 0 .266.006.391.017.125.011.246.028.366.05l.34.068c.096.02.19.048.28.085l-.068-1.402a4.103 4.103 0 0 0-.519-.136ZM74.205 18h1.733V9.216l-1.733.253v8.533ZM75.692 5.675a1.107 1.107 0 0 0-.586-.16 1.149 1.149 0 0 0-.596.16 1.245 1.245 0 0 0-.433.422 1.087 1.087 0 0 0-.161.583 1.15 1.15 0 0 0 .595 1.014c.181.101.386.154.595.152.205.002.408-.05.586-.152.175-.1.319-.247.417-.422.102-.18.154-.385.153-.592a1.135 1.135 0 0 0-.153-.583 1.197 1.197 0 0 0-.417-.422ZM85.985 9.384H83.86L80.95 12.56h-.627V5.244l-1.734.254V18h1.734v-4.139h.029l3.473 4.14h2.244l-4.124-4.619 4.039-3.998ZM94.908 9.384h-2.124l-2.91 3.176h-.626V5.244l-1.734.254V18h1.734v-4.139h.028l3.473 4.14h2.244l-4.123-4.619 4.038-3.998Z"/></svg>
